ubuntu-mono-light/status/24/battery-000.svg

<?xml version="1.0" encoding="UTF-8" standalone="no"?>
<!-- Created with Inkscape (http://www.inkscape.org/) -->

<svg
   xmlns:dc="http://purl.org/dc/elements/1.1/"
   xmlns:cc="http://creativecommons.org/ns#"
   xmlns:rdf="http://www.w3.org/1999/02/22-rdf-syntax-ns#"
   xmlns:svg="http://www.w3.org/2000/svg"
   xmlns="http://www.w3.org/2000/svg"
   xmlns:sodipodi="http://sodipodi.sourceforge.net/DTD/sodipodi-0.dtd"
   xmlns:inkscape="http://www.inkscape.org/namespaces/inkscape"
   version="1.0"
   width="24"
   height="24"
   id="svg3240"
   sodipodi:version="0.32"
   inkscape:version="0.47 r22583"
   sodipodi:docname="battery-000.svg"
   inkscape:output_extension="org.inkscape.output.svg.inkscape">
  <metadata
     id="metadata9">
    <rdf:RDF>
      <cc:Work
         rdf:about="">
        <dc:format>image/svg+xml</dc:format>
        <dc:type
           rdf:resource="http://purl.org/dc/dcmitype/StillImage" />
      </cc:Work>
    </rdf:RDF>
  </metadata>
  <sodipodi:namedview
     inkscape:window-height="706"
     inkscape:window-width="640"
     inkscape:pageshadow="2"
     inkscape:pageopacity="0.0"
     guidetolerance="10.0"
     gridtolerance="10.0"
     objecttolerance="10.0"
     borderopacity="1.0"
     bordercolor="#666666"
     pagecolor="#ffffff"
     id="base"
     showgrid="false"
     inkscape:zoom="5.1875"
     inkscape:cx="-2.6024096"
     inkscape:cy="11.807229"
     inkscape:window-x="0"
     inkscape:window-y="24"
     inkscape:current-layer="svg3240"
     inkscape:window-maximized="0" />
  <defs
     id="defs3242">
    <inkscape:perspective
       sodipodi:type="inkscape:persp3d"
       inkscape:vp_x="0 : 12 : 1"
       inkscape:vp_y="0 : 1000 : 0"
       inkscape:vp_z="24 : 12 : 1"
       inkscape:persp3d-origin="12 : 8 : 1"
       id="perspective10" />
  </defs>
  <g
     id="layer1">
    <rect
       width="14.5"
       height="7.5"
       rx="0.25"
       ry="0.25"
       x="4.25"
       y="8.25"
       id="rect3236"
       style="opacity:0.3;fill:none;stroke:#000000;stroke-width:0.5;stroke-linecap:round;stroke-linejoin:miter;stroke-miterlimit:4;stroke-opacity:1;stroke-dasharray:none;stroke-dashoffset:0;marker:none;visibility:visible;display:inline;overflow:visible;enable-background:accumulate" />
    <path
       d="m 4.5,6.5 c -1.108,0 -2,0.892 -2,2 l 0,7 c 0,1.108 0.8919998,2 2,2 l 14,0 c 1.108,0 2.000001,-0.892 2,-2 l 0,-1 c 0.586861,-0.0346 1.160328,-0.237389 1.53125,-0.71875 C 22.556463,13.206345 22.446061,12.592479 22.5,11.6875 22.553939,10.782521 21.530965,9.5237494 20.426211,9.5 L 20.5,8.5 c 0,-1.108 -0.891999,-2 -2,-2 l -14,0 z"
       id="rect3225"
       style="opacity:0.6;fill:none;stroke:#eae3d0;stroke-width:0.99999994;stroke-linecap:round;stroke-linejoin:miter;stroke-miterlimit:4;stroke-opacity:1;stroke-dasharray:none;stroke-dashoffset:0;marker:none;visibility:visible;display:inline;overflow:visible;enable-background:accumulate" />
    <path
       d="m 4.5,7.5 14,0 c 0.554,0 1,0.446 1,1 l 0,7 c 0,0.554 -0.446,1 -1,1 l -14,0 c -0.554,0 -1,-0.446 -1,-1 l 0,-7 c 0,-0.554 0.446,-1 1,-1 z m 15.118451,3.00264 c 0.32804,7e-4 0.656076,0.0015 0.984108,0.0025 0.597825,0.04076 0.976733,0.649596 0.897474,1.212194 -0.02343,0.532922 0.124121,1.176896 -0.363195,1.554865 -0.438478,0.350761 -1.0212,0.191405 -1.537207,0.227797"
       id="rect2442"
       style="fill:none;stroke:#dc0000;stroke-width:1;stroke-linecap:round;stroke-linejoin:miter;stroke-miterlimit:4;stroke-opacity:1;stroke-dashoffset:0;marker:none;visibility:visible;display:inline;overflow:visible;enable-background:accumulate" />
  </g>
</svg>

<?xml version="1.0" encoding="UTF-8" standalone="no"?>
<!-- Created with Inkscape (http://www.inkscape.org/) -->
<svg
   xmlns:dc="http://purl.org/dc/elements/1.1/"
   xmlns:cc="http://creativecommons.org/ns#"
   xmlns:rdf="http://www.w3.org/1999/02/22-rdf-syntax-ns#"
   xmlns:svg="http://www.w3.org/2000/svg"
   xmlns="http://www.w3.org/2000/svg"
   xmlns:sodipodi="http://sodipodi.sourceforge.net/DTD/sodipodi-0.dtd"
   xmlns:inkscape="http://www.inkscape.org/namespaces/inkscape"
   version="1.0"
   width="24"
   height="24"
   id="svg3240"
   sodipodi:version="0.32"
   inkscape:version="0.46"
   sodipodi:docname="battery-000.svg"
   inkscape:output_extension="org.inkscape.output.svg.inkscape">
  <metadata
     id="metadata9">
    <rdf:RDF>
      <cc:Work
         rdf:about="">
        <dc:format>image/svg+xml</dc:format>
        <dc:type
           rdf:resource="http://purl.org/dc/dcmitype/StillImage" />
      </cc:Work>
    </rdf:RDF>
  </metadata>
  <sodipodi:namedview
     inkscape:window-height="706"
     inkscape:window-width="640"
     inkscape:pageshadow="2"
     inkscape:pageopacity="0.0"
     guidetolerance="10.0"
     gridtolerance="10.0"
     objecttolerance="10.0"
     borderopacity="1.0"
     bordercolor="#666666"
     pagecolor="#ffffff"
     id="base"
     showgrid="false"
     inkscape:zoom="10.375"
     inkscape:cx="-2.6024096"
     inkscape:cy="12"
     inkscape:window-x="0"
     inkscape:window-y="24"
     inkscape:current-layer="svg3240" />
  <defs
     id="defs3242">
    <inkscape:perspective
       sodipodi:type="inkscape:persp3d"
       inkscape:vp_x="0 : 12 : 1"
       inkscape:vp_y="0 : 1000 : 0"
       inkscape:vp_z="24 : 12 : 1"
       inkscape:persp3d-origin="12 : 8 : 1"
       id="perspective10" />
  </defs>
  <g
     id="layer1"
     transform="matrix(-1,0,0,1,24.002042,0)">
    <rect
       width="14.5"
       height="7.5"
       rx="0.25"
       ry="0.25"
       x="4.25"
       y="8.25"
       id="rect3236"
       style="opacity:0.3;fill:none;fill-opacity:1;fill-rule:nonzero;stroke:#000000;stroke-width:0.5;stroke-linecap:round;stroke-linejoin:miter;marker:none;marker-start:none;marker-mid:none;marker-end:none;stroke-miterlimit:4;stroke-dasharray:none;stroke-dashoffset:0;stroke-opacity:1;visibility:visible;display:inline;overflow:visible;enable-background:accumulate" />
    <path
       d="M 4.5,6.5 C 3.392,6.5 2.5,7.392 2.5,8.5 L 2.5,15.5 C 2.5,16.608 3.3919998,17.5 4.5,17.5 L 18.5,17.5 C 19.608,17.5 20.500001,16.608 20.5,15.5 L 20.5,14.5 C 21.086861,14.465401 21.660328,14.262611 22.03125,13.78125 C 22.556463,13.206345 22.446061,12.592479 22.5,11.6875 C 22.553939,10.782521 21.530965,9.5237494 20.426211,9.5 L 20.5,8.5 C 20.5,7.392 19.608001,6.5 18.5,6.5 L 4.5,6.5 z"
       id="rect3225"
       style="opacity:0.6;fill:none;fill-opacity:1;fill-rule:nonzero;stroke:#eae3d0;stroke-width:0.99999994;stroke-linecap:round;stroke-linejoin:miter;marker:none;marker-start:none;marker-mid:none;marker-end:none;stroke-miterlimit:4;stroke-dasharray:none;stroke-dashoffset:0;stroke-opacity:1;visibility:visible;display:inline;overflow:visible;enable-background:accumulate" />
    <path
       d="M 4.5,7.5 L 18.5,7.5 C 19.054,7.5 19.5,7.946 19.5,8.5 L 19.5,15.5 C 19.5,16.054 19.054,16.5 18.5,16.5 L 4.5,16.5 C 3.946,16.5 3.5,16.054 3.5,15.5 L 3.5,8.5 C 3.5,7.946 3.946,7.5 4.5,7.5 z M 19.618451,10.50264 C 19.946491,10.50334 20.274527,10.504168 20.602559,10.505144 C 21.200384,10.545901 21.579292,11.15474 21.500033,11.717338 C 21.4766,12.25026 21.624154,12.894234 21.136838,13.272203 C 20.69836,13.622964 20.115638,13.463608 19.599631,13.5"
       id="rect2442"
       style="fill:none;fill-opacity:1;fill-rule:nonzero;stroke:#dc0000;stroke-width:1;stroke-linecap:round;stroke-linejoin:miter;marker:none;marker-start:none;marker-mid:none;marker-end:none;stroke-miterlimit:4;stroke-dashoffset:0;stroke-opacity:1;visibility:visible;display:inline;overflow:visible;enable-background:accumulate" />
  </g>
</svg>
